!!!CDT:
!!!PTL: Il settimo libro de madrigali a cinque voci
!!!PPP: Venice
!!!PPR: Giacomo Vincenzi
!!!PDT: 1604
!!!RISM: L 3130
!!!rime: 284
!!!AGN: Madrigal
!!!SCT: Trm0284j
!!!SCA: Trm0284j
!!!voices:
!!!COM: Luzzaschi, Luzzasco
!!!OTL: Questa vostra pietate 
**kern	**text	**kern	**text
*part2	*part2	*part1	*part1
*staff2	*staff2	*staff1	*staff1
*I"Basso	*	*I"Canto	*
*I'B	*	*I'C	*
*oclefF4	*	*oclefC1	*
*clefF4	*	*clefG2	*
*k[]	*	*k[]	*
*C:	*	*C:	*
*omet(C|)	*	*omet(C|)	*
*M2/1	*	*M2/1	*
=1	=1	=1	=1
1E	Que-	0r	.
2C	-sta	.	.
2D	vo-	.	.
=2	=2	=2	=2
2E	-stra	1r	.
2E	pie-	.	.
1AA	-ta-	2r	.
.	.	2ee	Que-
=3	=3	=3	=3
2E	-te	2ee	-sta
2BB	Non	2dd	vo-
4.C	re-	2cc	-stra
8C	-fri-	.	.
4C	-ge-	2cc	pie-
4C	-rio al	.	.
=4	=4	=4	=4
2D	co-	1a	-ta-
2AA	-re,	.	.
2r	.	2g#X	-te
2AA	Non	2a	Non
=5	=5	=5	=5
4.E	re-	4.b	re-
8E	-fri-	8b	-fri-
4A	-ge-	4cc	-ge-
4AA	-rio al	4cc	-rio al
2E	co-	2b	co-
2AA	-re	2a	-re
=6	=6	=6	=6
2.D	Ma	2.a	Ma
4GG	dà	4b	dà
2C	for-	2cc	for-
2C	-za,	2cc	-za,
=7	=7	=7	=7
4r	.	4r	.
2C	Ma	2g	Ma
4AA	dà	4cc	dà
1GG	for-	2b	for-
.	.	2dd	-za a
=8	=8	=8	=8
2AA	-za a	2cc	l'ar-
2BB	l'ar-	2.b	-do-
2.C	-do-	.	.
.	.	4a	.
.	.	[2a	.
4D	.	.	.
=9	=9	=9	=9
1E	.	2a]	.
.	.	2g#i	.
1AA	-re;	1a	-re;
=10	=10	=10	=10
0r	.	1r	.
.	.	1f	Dun-
=11	=11	=11	=11
0r	.	2e	-que
.	.	2.e	d'es-
.	.	4e	-ser
.	.	2a	pie-
=12	=12	=12	=12
0r	.	2g#X	-to-
.	.	2a	-sa ho-
.	.	2b	-mai,
.	.	4r	.
.	.	4dd	ho-
=13	=13	=13	=13
2r	.	2ee	-mai
2AA	In	2cc	ces-
4AA	co-	2a	-sa-
4BB	-sì	.	.
[2C	stra-	2gnXi	-te
=14	=14	=14	=14
4C]	.	2e	In
4D	-na	.	.
1E	gui-	4e	co-
.	.	4f	-sì
.	.	2.g	stra-
2E	-sa	.	.
.	.	4a	-na
=15	=15	=15	=15
0r	.	2b	gui-
.	.	2b	-sa
.	.	4r	.
.	.	2b	Che
.	.	4a	ne
=16	=16	=16	=16
2r	.	2b	sia
4r	.	2cc	l'al-
2A	Che	.	.
.	.	2b	-ma uc-
4G#X	ne	.	.
2A	sia	2a	-ci-
=17	=17	=17	=17
2F	l'al-	2a	-sa;
2E	-ma uc-	2r	.
2D	-ci-	1r	.
2AA	-sa;	.	.
=18	=18	=18	=18
1r	.	1r	.
2r	.	2r	.
2D	Per-	2a	Per-
=19	=19	=19	=19
2.D	-ch'el-	2.a	-ch'el-
4BB	-la	4dd	-la
4C	vi	4cc	vi
4GG	de-	4b	de-
2D	-si-	2a	-si-
=20	=20	=20	=20
1GG	-a	2b	-a
.	.	1dd	O in
1r	.	.	.
.	.	2dd	e-
=21	=21	=21	=21
0r	.	1.ee	-stre-
.	.	2dd	-mo
=22	=22	=22	=22
0r	.	2cc#X	cru-
.	.	2.dd	-de-
.	.	8cc#iL	.
.	.	8bJ	.
.	.	2cc#i	.
=23	=23	=23	=23
1.D	O in	1dd	-le
.	.	1r	.
2D	e-	.	.
=24	=24	=24	=24
1E	-stre-	0r	.
2E	-mo	.	.
2E	cru-	.	.
=25	=25	=25	=25
1E	-de-	1r	.
1D	-le	2r	.
.	.	2a	o in
=26	=26	=26	=26
0r	.	1cc	tut-
.	.	1g	-to
=27	=27	=27	=27
0r	.	0f	pi-
=28	=28	=28	=28
1AA	o in	1e	-a,
1C	tut-	1r	.
=29	=29	=29	=29
1GG	-to	0r	.
[1BB-X	pi-	.	.
=30	=30	=30	=30
1BB-]	.	1r	.
1AA	-a,	2r	.
.	.	[2a	O in
=31	=31	=31	=31
0r	.	2a]	.
.	.	2a	e-
.	.	[1b	-stre-
=32	=32	=32	=32
0r	.	2b]	.
.	.	2a	-mo
.	.	2g#X	cru-
.	.	[2a	-de-
=33	=33	=33	=33
0r	.	4a]	.
.	.	8g#iL	.
.	.	8f#iJ	.
.	.	2g#X	.
.	.	[1a	-le
=34	=34	=34	=34
0r	.	1a]	.
.	.	2r	.
.	.	2a	o in
=35	=35	=35	=35
0r	.	1cc	tut-
.	.	1g	-to
=36	=36	=36	=36
0r	.	0f	pi-
=37	=37	=37	=37
1AA	o in	[0el	-a.
1C	tut-	.	.
=38	=38	=38	=38
1AA	-to	0e_	.
1AA	pi-	.	.
=39	=39	=39	=39
0EEl	-a.	0e]	.
==	==	==	==
*-	*-	*-	*-
!!!system-decoration: [*]
!!!RDF**kern: i = editorial accidental
!!!RDF**kern: l = terminal long
!!!ENC: Emiliano Ricciardi
!!!END:
!!!EED: Ricciardi, Emiliano
!!!EEV: 2020/07/28
!!!YEC: Copyright 2018 Emiliano Ricciardi, All Rights Reserved
!!!ONB: Translated from MusicXML on 2020/07/28
!!@@BEGIN:	VERSEDATA
!!@SOLERTI:	284
!!@CATALOGNUM:	Trm0284
!!@LAST_MODIFIED: 2020/07/12
!!@TITLE:		Questa vostra pietate
!!@GENRE:		madrigale
!!@MANUSRC:	Amz, E<sub>1</sub>, I<sub>4</sub>, P<sub>4</sub>, V<sub>13/E1</sub>
!!@PRINTSRC:	8, 9, 11, 12, 13, 15, 20, 24, 29, 33, 67, 169
!!@@BEGIN:	VERSES
!!@ABOUTIT:	Persuade la sua donna ad essere o in tutto crudele o in tutto pia.
!!@ABOUTEN:	He persuades his lady to be either fully cruel, or fully pitiful.
!!@EDITOR:	Solerti, Angelo
!!@EDITION_TITLE: Le Rime di Torquato Tasso
!!@EDITION_LOC:	Bologna
!!@EDITION_PUB:	Romagnoli-Dall’Acqua
!!@EDITION_DATE:  1898-1902
!!@EDITION_VOL:	2
!!@EDITION_PAGE:  355
!!@TRANSLATOR:	Emiliano Ricciardi and Amyrose McCue Gill
!!@VERSE:
!!	Questa vostra pietate
!!	Non refrigerio al core
!!	Ma dà forza a l'ardore;
!!	Dunque d'esser pietosa omai cessate
!!	In così strana guisa
!!	Che ne sia l'alma uccisa;
!!	Perch'ella vi desia
!!	O in estremo crudele o in tutto pia.
!!@TVERSE:
!!	This compassion of yours
!!	Brings not respite to my heart
!!	But strength to my ardor;
!!	Therefore, cease now to be compassionate
!!	In such a strange manner
!!	That my soul is slain by it;
!!	Because she desires you
!!	Whether extremely cruel or entirely compassionate.
!!@@END:		VERSES
!!@OTHER_CRIT_ED:   None
!!@ATTRIBUTION_ABOUT:	Secure
!!		<br>
!!		Among other sources (see Literary Sources), this poem appears in the authoritative manuscript It. 385, Biblioteca Estense Universitaria, Modena.
!!@DATING:	In or before 1581
!!		<Br>
!!		The earliest datable appearance of this poem is Manuzio's 1581 print of the <i>Rime</> (see Literary Sources).
!!@DEDICATEE:
!!@COMMENTARY:
!!@@END:		VERSEDATA
!!@@BEGIN:	SETTING
!!@CATALOGNUM:	Trm0284j
!!@RIMETITLE:	Questa vostra pietate
!!@SOLERTI:	284
!!@COMPOSER:	Luzzaschi, Luzzasco
!!@PRINCEPSTITLE:	Il settimo libro de madrigali a cinque voci
!!@PRINCEPSLOC:	Venetia
!!@NORMLOC:	Venice
!!@NORMPUB:	Giacomo Vincenzi
!!@NORMPUBSHORT:	G. Vincenzi
!!@PRINCEPSPUB:	Vincenti
!!@PRINCEPSYEAR:	1604
!!@PRINCEPSRISM:	L 3130
!!@REPRINTS:	
!!@OVOICES:	5
!!@EXTANTVOICES:	2
!!@PARTBOOKS:	
!!@EXTPARTBOOKS:	
!!@OCLEFS:	C1,F4
!!@OMENSURATION:	Cut-C
!!@OKEYSIG:	-
!!@FINAL:	E
!!@TIMPEDITOR:	Ricciardi, Emiliano
!!@NOTE:		
!!@@END:		SETTING
